X:1
T:My Lady Hunsdon's Puffe
T:      My Lady Hunsdon's Puffe
T:John Dowland
C:John Dowland
%%score ( 1 2 3 4 )
L:1/8
Q:1/4=80
M:4/4
K:D
V:1 treble-8 nm="Nylon\nGuitar"
V:2 treble-8 
V:3 treble-8 
V:4 treble-8 
V:1
"^C2" !2!da a"^C5"b"^C2" !2![da]>g f/e/d | da a"^C4"b"^C2" a>g f/e/!2!d | %2
"^C1" !4!g>g !2!f/!0!e/!3!d !2![ce]>!3!d !2!c/"^X"!0!B/"^♫"!2!A/!1!=c/ | %3
"^C2" !0!B/"^½II"!1!c/!2!d- d/!2!d/!2!c"^o2" !-2!d2"^X" z2 || %4
"^o1" (!2!d/4!4!e/4)(!1!f/4!2!g/4)!4!a/a/"^C4""^∆" !2!a/!4!f/!4!b (!2!a/!4!b/)!2!a/"^C2"!-2!g/ !1!f/!0!e/!2!d | %5
"^o1" !2!d/!4!e/!1!f/!2!g/ !4!a/!1!f/"^C5"!4!b"^C2" (!-4!a/!1!f/)!2!d/!4!e/ !1!f/!2!g/!4!a- | %6
 a/!2!g/!0!e/"^o2"!2!g!4!a/!1!f (!0!e/!1!f/)!2!d/e/ !1!c/!2!d/"^♫"(!4!e/"^II"!1!f/) | %7
 (!2!g/!1!f/)!0!e/!2!d/"^¼II" !1!c/d/z/!1!c/ !2!d4 || %8
"^C1" !1!=c!4!g!4!g"^C3"!1!!-4![=Fa]"^C1" g>=f e/d/c | %9
 =c/!4!d/e/!1!=f/ !4!g/e/"^C3"!-4!a"^C1" !-4!g>!1!f e"^C3"!3!a/!1!g/ | %10
"^C1" !-1!=f!3!g/!1!f/ !0!e/"^C2"!2!d/!1!c/e/ !2!d4 |: !0![DGB] z [DGB] z [DGB] z [DGB]!3![Gd] | %12
"^¼II" !1![Ac]"^d-"!0!!1![DA] !0![DGB]"^½II"!1![EAc] !2!d7/2"^C3" !4!=c/ | %13
"^(C3)" B/!4!=c/"^C2"!2!d/!4!c/"^C3" B/!4!c/"^C2"!2!d/!4!c/"^C3" !0!B/!4!c/"^%"!1!d/"^%"!2!B/ !0!e/"^C2"!2!d/!1!^c/!3!B/ | %14
"^¼II" !0!A,/!1!c/!3!F,/!1!A/ !4!G,/!0!B/"^¼II"!0!A,/!1!c/ !2!d2 !2!d z/"^C5" !1!a/ | %15
"^C5" !1!a"^C7"!4!d'"^C5" !1!a"^C7"d'"^C5" !1!a>!3!b !1!a/!4!g/!3!f/!1!e/ | %16
 !3!f!4!g/f/ !1!e/!3!d/!2!c/!0!e/"^¼II" !3!!1!!2![FAd]3"^III" !1!g | %17
 !1!g"^Ш"!4!=c'gc' g!3!a!1!g!4!=f/!3!e/ | %18
"^C2" !1!fe/!1!f/ !2!g/f/!0!e/!2!d/ z/"^0♫""^II" e!3!d/ !2!c/!0!B/!2!A/!1!=c/ | %19
 B/!2!d/!1!c/!4!e/"^II" !2!d/!1!f/!0!e/!2!g/"^C2" !1!f/!2!g/!4!a/!2!g/ !1!f/!4!e/!2!d/!1!f/ | %20
"^(C2)" !4!G,/e/!1!B,/!2!d/- d/"^II"!2!d/!1!c"^C2" !2!d2 z2 :| %21
V:2
 !1!A3 !1!G !1![DA]4 | A3 !1!G D3 D | !3![=CG]2 D2 A,3 !4!F, | !-4!G,2 !0!A,2 !3!F2 D,2 || %4
 D3 !1!G D4 | D3 !1!G D2- D>A, | !1!=C2 !0!D2 A,4 | !1!B,!4!G, A,2 D,!4!D D,2 || %8
 !3![=CG]3 z [CG=c]4 | =C3 !1!=F [CG=c]3 A, | D2 A,2 D,!4!D D,2 |: !4!G, z G, z G, z G,!1!B, | %12
 A,!3!F, !4!G,A, !0!D,!4!D !0!D,2 | !3!G,!1!B,!3!G,!1!B, !3!G,3 !1!E, | A,F, G,A, !0!D, !4!D2 z | %15
 D4 D4 | D2 A,2 z D,2 z | =C4 C4 | x4 A,2 A,!4!F, | x8 | G,B, !0!A,2 !0!D,!4!D D,2 :| %21
V:3
 D3 x5 | D3 x5 | x4 z !1!E2 x | x8 || x8 | x8 | x8 | x8 || x8 | x8 | x8 |: x8 | x8 | x8 | x8 | x8 | %16
 x8 | x8 | x9/2 !1![Ac]/ !1!E2 x | x8 | x8 :| %21
V:4
 x8 | x8 | x8 | z3/2 !3!F !1!E!4!G/ D,!4!D x2 || x8 | x8 | x8 | z2 z !4!G !3!F4 || x8 | x8 | %10
 x4 !3!F4 |: x8 | x4 !3!!1![FA]4 | x8 | x4 !3!F3 x | x8 | x8 | x8 | D4 x4 | %19
 !-4!G,A, !1!B,!3!C D3 D | x5/2 !1!E!4!G/ !3!F2 x2 :| %21

